;generated by ffslicer 1.4.0 02/12/17 19:11:19
;start gcode
M118 X50.00 Y50.39 Z71.17 T0
M140 S0
M104 S210 T0
M104 S0 T1
M107
G90
G28
M132 X Y Z A B
G1 Z50.00 F600
G161 X Y F3300
M6 T0
M907 X100 Y100 Z40 A100 B20
;preExtrude: 0.20
G1 Z.20 F400
M108 T0
;preExtruder0
G1 X50.00 Y50.39 F6000
G1 X-50.00 Y50.39 E14.5014 F1200
G1 X-50.00 Y30.39 E17.4017
;raft
;layer:0.19
G1 Z.19 F400
;shell
G1 E16.1017 F1800
G1 Z.39 F400
G1 X-44.00 Y-43.96 F4200
G1 Z.19 F400
G1 E17.4017 F1800
G1 X-44.00 Y-43.96 F4200
G1 X-43.00 Y-43.96 E17.4361 F900
G1 X-42.00 Y-43.96 E17.4706
G1 X-41.00 Y-43.96 E17.5050
G1 X-40.00 Y-43.96 E17.5395
G1 X-39.00 Y-43.96 E17.5739
G1 X44.00 Y-43.96 E20.4325
G1 X44.00 Y44.39 E23.4754
G1 X-44.00 Y44.39 E26.5062
G1 X-44.00 Y-43.96 E29.5490
G1 E28.2490 F1800
G1 X-44.40 Y-44.36 F4200
G1 E29.5490 F1800
G1 X-44.40 Y-44.36 F4200
G1 X44.40 Y-44.36 E32.6074 F900
G1 X44.40 Y44.79 E35.6778
G1 X-44.40 Y44.79 E38.7361
G1 X-44.40 Y-34.26 E41.4587
G1 X-44.40 Y-36.26 E41.5275
G1 X-44.40 Y-38.26 E41.5964
G1 X-44.40 Y-40.26 E41.6653
G1 X-44.40 Y-42.26 E41.7342
G1 X-44.40 Y-44.26 E41.8031 F720
G1 X-44.80 Y-44.76 E41.8031 F300
G1 X44.80 Y-44.76 E44.8890 F900
G1 X44.80 Y45.19 E47.9869
G1 X-44.80 Y45.19 E51.0728
G1 X-44.80 Y-44.66 E54.1673
G1 X-44.40 Y-44.26 E54.1738 F300
;infill
G1 E52.8738 F1800
G1 X-43.66 Y-43.44 F4200
G1 E54.1738 F1800
G1 X-43.66 Y-43.44 F4200
G1 X-43.47 Y-43.62 E54.1828 F900
G1 X-42.90 Y-43.62 E54.2025
G1 X-43.66 Y-42.87 E54.2392
G1 X-43.66 Y-42.30 E54.2589
G1 X-42.34 Y-43.62 E54.3232
G1 X-41.77 Y-43.62 E54.3428
G1 X-43.66 Y-41.74 E54.4346
G1 X-43.66 Y-41.17 E54.4542
G1 X-41.21 Y-43.62 E54.5736
G1 X-40.64 Y-43.62 E54.5932
G1 X-43.66 Y-40.61 E54.7401
G1 X-43.66 Y-40.04 E54.7597
G1 X-40.08 Y-43.62 E54.9341
G1 X-39.51 Y-43.62 E54.9537
G1 X-43.66 Y-39.48 E55.1556
G1 X-43.66 Y-38.91 E55.1752
G1 X-38.94 Y-43.62 E55.4049
G1 X-38.38 Y-43.62 E55.4242
G1 X-43.66 Y-38.34 E55.6813
G1 X-43.66 Y-37.78 E55.7006
G1 X-37.81 Y-43.62 E55.9853
G1 X-37.25 Y-43.62 E56.0046
G1 X-43.66 Y-37.21 E56.3168
G1 X-43.66 Y-36.65 E56.3361
G1 X-36.68 Y-43.62 E56.6758
G1 X-36.12 Y-43.62 E56.6951
G1 X-43.66 Y-36.08 E57.0624
G1 X-43.66 Y-35.52 E57.0816
G1 X-35.55 Y-43.62 E57.4764
G1 X-34.98 Y-43.62 E57.4960
G1 X-43.66 Y-34.95 E57.9186
G1 X-43.66 Y-34.38 E57.9382
G1 X-34.42 Y-43.62 E58.3883
G1 X-33.85 Y-43.62 E58.4079
G1 X-43.66 Y-33.82 E58.8855
G1 X-43.66 Y-33.25 E58.9051
G1 X-33.29 Y-43.62 E59.4102
G1 X-32.72 Y-43.62 E59.4298
G1 X-43.66 Y-32.69 E59.9624
G1 X-43.66 Y-32.12 E59.9821
G1 X-32.16 Y-43.62 E60.5422
G1 X-31.59 Y-43.62 E60.5618
G1 X-43.66 Y-31.56 E61.1495
G1 X-43.66 Y-30.99 E61.1691
G1 X-31.03 Y-43.62 E61.7843
G1 X-30.46 Y-43.62 E61.8039
G1 X-43.66 Y-30.43 E62.4466
G1 X-43.66 Y-29.86 E62.4662
G1 X-29.89 Y-43.62 E63.1367
G1 X-29.33 Y-43.62 E63.1560
G1 X-43.66 Y-29.29 E63.8539
G1 X-43.66 Y-28.73 E63.8732
G1 X-28.76 Y-43.62 E64.5987
G1 X-28.20 Y-43.62 E64.6180
G1 X-43.66 Y-28.16 E65.3710
G1 X-43.66 Y-27.60 E65.3903
G1 X-27.63 Y-43.62 E66.1708
G1 X-27.07 Y-43.62 E66.1901
G1 X-43.66 Y-27.03 E66.9981
G1 X-43.66 Y-26.47 E67.0174
G1 X-26.50 Y-43.62 E67.8530
G1 X-25.93 Y-43.62 E67.8726
G1 X-43.66 Y-25.90 E68.7359
G1 X-43.66 Y-25.33 E68.7556
G1 X-25.37 Y-43.62 E69.6464
G1 X-24.80 Y-43.62 E69.6661
G1 X-43.66 Y-24.77 E70.5844
G1 X-43.66 Y-24.20 E70.6041
G1 X-24.24 Y-43.62 E71.5499
G1 X-23.67 Y-43.62 E71.5696
G1 X-43.66 Y-23.64 E72.5430
G1 X-43.66 Y-23.07 E72.5626
G1 X-23.11 Y-43.62 E73.5635
G1 X-22.54 Y-43.62 E73.5832
G1 X-43.66 Y-22.51 E74.6116
G1 X-43.66 Y-21.94 E74.6312
G1 X-21.97 Y-43.62 E75.6874
G1 X-21.41 Y-43.62 E75.7067
G1 X-43.66 Y-21.37 E76.7905
G1 X-43.66 Y-20.81 E76.8098
G1 X-20.84 Y-43.62 E77.9210
G1 X-20.28 Y-43.62 E77.9403
G1 X-43.66 Y-20.24 E79.0791
G1 X-43.66 Y-19.68 E79.0983
G1 X-19.71 Y-43.62 E80.2646
G1 X-19.15 Y-43.62 E80.2839
G1 X-43.66 Y-19.11 E81.4777
G1 X-43.66 Y-18.55 E81.4970
G1 X-18.58 Y-43.62 E82.7183
G1 X-18.01 Y-43.62 E82.7380
G1 X-43.66 Y-17.98 E83.9870
G1 X-43.66 Y-17.41 E84.0067
G1 X-17.45 Y-43.62 E85.2833
G1 X-16.88 Y-43.62 E85.3029
G1 X-43.66 Y-16.85 E86.6070
G1 X-43.66 Y-16.28 E86.6267
G1 X-16.32 Y-43.62 E87.9583
G1 X-15.75 Y-43.62 E87.9779
G1 X-43.66 Y-15.72 E89.3371
G1 X-43.66 Y-15.15 E89.3567
G1 X-15.19 Y-43.62 E90.7434
G1 X-14.62 Y-43.62 E90.7630
G1 X-43.66 Y-14.59 E92.1773
G1 X-43.66 Y-14.02 E92.1969
G1 X-14.05 Y-43.62 E93.6389
G1 X-13.49 Y-43.62 E93.6581
G1 X-43.66 Y-13.45 E95.1276
G1 X-43.66 Y-12.89 E95.1469
G1 X-12.92 Y-43.62 E96.6439
G1 X-12.36 Y-43.62 E96.6632
G1 X-43.66 Y-12.32 E98.1877
G1 X-43.66 Y-11.76 E98.2070
G1 X-11.79 Y-43.62 E99.7591
G1 X-11.23 Y-43.62 E99.7783
G1 X-43.66 Y-11.19 E101.3579
G1 X-43.66 Y-10.63 E101.3772
G1 X-10.66 Y-43.62 E102.9843
G1 X-10.09 Y-43.62 E103.0039
G1 X-43.66 Y-10.06 E104.6387
G1 X-43.66 Y-9.50 E104.6580
G1 X-9.53 Y-43.62 E106.3202
G1 X-8.96 Y-43.62 E106.3398
G1 X-43.66 Y-8.93 E108.0297
G1 X-43.66 Y-8.36 E108.0493
G1 X-8.40 Y-43.62 E109.7667
G1 X-7.83 Y-43.62 E109.7863
G1 X-43.66 Y-7.80 E111.5313
G1 X-43.66 Y-7.23 E111.5509
G1 X-7.27 Y-43.62 E113.3233
G1 X-6.70 Y-43.62 E113.3430
G1 X-43.66 Y-6.67 E115.1429
G1 X-43.66 Y-6.10 E115.1626
G1 X-6.13 Y-43.62 E116.9903
G1 X-5.57 Y-43.62 E117.0096
G1 X-43.66 Y-5.54 E118.8646
G1 X-43.66 Y-4.97 E118.8842
G1 X-5.00 Y-43.62 E120.7670
G1 X-4.44 Y-43.62 E120.7862
G1 X-43.66 Y-4.40 E122.6965
G1 X-43.66 Y-3.84 E122.7158
G1 X-3.87 Y-43.62 E124.6536
G1 X-3.31 Y-43.62 E124.6729
G1 X-43.66 Y-3.27 E126.6382
G1 X-43.66 Y-2.71 E126.6575
G1 X-2.74 Y-43.62 E128.6503
G1 X-2.18 Y-43.62 E128.6696
G1 X-43.66 Y-2.14 E130.6900
G1 X-43.66 Y-1.58 E130.7093
G1 X-1.61 Y-43.62 E132.7572
G1 X-1.04 Y-43.62 E132.7768
G1 X-43.66 Y-1.01 E134.8524
G1 X-43.66 Y-.44 E134.8720
G1 X-.48 Y-43.62 E136.9752
G1 X.09 Y-43.62 E136.9948
G1 X-43.66 Y.12 E139.1255
G1 X-43.66 Y.69 E139.1451
G1 X.65 Y-43.62 E141.3033
G1 X1.22 Y-43.62 E141.3230
G1 X-43.66 Y1.25 E143.5087
G1 X-43.66 Y1.82 E143.5283
G1 X1.78 Y-43.62 E145.7415
G1 X2.35 Y-43.62 E145.7612
G1 X-43.66 Y2.38 E148.0019
G1 X-43.66 Y2.95 E148.0215
G1 X2.92 Y-43.62 E150.2901
G1 X3.48 Y-43.62 E150.3093
G1 X-43.66 Y3.52 E152.6054
G1 X-43.66 Y4.08 E152.6246
G1 X4.05 Y-43.62 E154.9482
G1 X4.61 Y-43.62 E154.9675
G1 X-43.66 Y4.65 E157.3186
G1 X-43.66 Y5.21 E157.3379
G1 X5.18 Y-43.62 E159.7164
G1 X5.74 Y-43.62 E159.7357
G1 X-43.66 Y5.78 E162.1418
G1 X-43.66 Y6.34 E162.1611
G1 X6.31 Y-43.62 E164.5947
G1 X6.88 Y-43.62 E164.6144
G1 X-43.66 Y6.91 E167.0758
G1 X-43.66 Y7.48 E167.0954
G1 X7.44 Y-43.62 E169.5843
G1 X8.01 Y-43.62 E169.6039
G1 X-43.66 Y8.04 E172.1204
G1 X-43.66 Y8.61 E172.1400
G1 X8.57 Y-43.62 E174.6840
G1 X9.14 Y-43.62 E174.7036
G1 X-43.66 Y9.17 E177.2750
G1 X-43.66 Y9.74 E177.2947
G1 X9.70 Y-43.62 E179.8937
G1 X10.27 Y-43.62 E179.9133
G1 X-43.66 Y10.30 E182.5398
G1 X-43.66 Y10.87 E182.5594
G1 X10.84 Y-43.62 E185.2137
G1 X11.40 Y-43.62 E185.2330
G1 X-43.66 Y11.44 E187.9148
G1 X-43.66 Y12.00 E187.9341
G1 X11.97 Y-43.62 E190.6434
G1 X12.53 Y-43.62 E190.6627
G1 X-43.66 Y12.57 E193.3995
G1 X-43.66 Y13.13 E193.4188
G1 X13.10 Y-43.62 E196.1831
G1 X13.66 Y-43.62 E196.2024
G1 X-43.66 Y13.70 E198.9943
G1 X-43.66 Y14.26 E199.0136
G1 X14.23 Y-43.62 E201.8329
G1 X14.80 Y-43.62 E201.8526
G1 X-43.66 Y14.83 E204.6997
G1 X-43.66 Y15.40 E204.7194
G1 X15.36 Y-43.62 E207.5940
G1 X15.93 Y-43.62 E207.6137
G1 X-43.66 Y15.96 E210.5158
G1 X-43.66 Y16.53 E210.5355
G1 X16.49 Y-43.62 E213.4652
G1 X17.06 Y-43.62 E213.4848
G1 X-43.66 Y17.09 E216.4420
G1 X-43.66 Y17.66 E216.4617
G1 X17.62 Y-43.62 E219.4464
G1 X18.19 Y-43.62 E219.4660
G1 X-43.66 Y18.22 E222.4783
G1 X-43.66 Y18.79 E222.4979
G1 X18.75 Y-43.62 E225.5377
G1 X19.32 Y-43.62 E225.5573
G1 X-43.66 Y19.35 E228.6246
G1 X-43.66 Y19.92 E228.6443
G1 X19.89 Y-43.62 E231.7393
G1 X20.45 Y-43.62 E231.7586
G1 X-43.66 Y20.49 E234.8812
G1 X-43.66 Y21.05 E234.9005
G1 X21.02 Y-43.62 E238.0506
G1 X21.58 Y-43.62 E238.0699
G1 X-43.66 Y21.62 E241.2475
G1 X-43.66 Y22.18 E241.2668
G1 X22.15 Y-43.62 E244.4719
G1 X22.72 Y-43.62 E244.4916
G1 X-43.66 Y22.75 E247.7245
G1 X-43.66 Y23.31 E247.7437
G1 X23.28 Y-43.62 E251.0039
G1 X23.85 Y-43.62 E251.0236
G1 X-43.66 Y23.88 E254.3115
G1 X-43.66 Y24.45 E254.3311
G1 X24.41 Y-43.62 E257.6466
G1 X24.98 Y-43.62 E257.6662
G1 X-43.66 Y25.01 E261.0092
G1 X-43.66 Y25.58 E261.0289
G1 X25.54 Y-43.62 E264.3994
G1 X26.11 Y-43.62 E264.4190
G1 X-43.66 Y26.14 E267.8170
G1 X-43.66 Y26.71 E267.8367
G1 X26.67 Y-43.62 E271.2622
G1 X27.24 Y-43.62 E271.2818
G1 X-43.66 Y27.27 E274.7348
G1 X-43.66 Y27.84 E274.7545
G1 X27.81 Y-43.62 E278.2353
G1 X28.37 Y-43.62 E278.2546
G1 X-43.66 Y28.41 E281.7629
G1 X-43.66 Y28.97 E281.7822
G1 X28.94 Y-43.62 E285.3181
G1 X29.50 Y-43.62 E285.3374
G1 X-43.66 Y29.54 E288.9007
G1 X-43.66 Y30.10 E288.9200
G1 X30.07 Y-43.62 E292.5109
G1 X30.63 Y-43.62 E292.5302
G1 X-43.66 Y30.67 E296.1486
G1 X-43.66 Y31.23 E296.1679
G1 X31.20 Y-43.62 E299.8139
G1 X31.77 Y-43.62 E299.8335
G1 X-43.66 Y31.80 E303.5072
G1 X-43.66 Y32.37 E303.5268
G1 X32.33 Y-43.62 E307.2280
G1 X32.90 Y-43.62 E307.2477
G1 X-43.66 Y32.93 E310.9764
G1 X-43.66 Y33.50 E310.9960
G1 X33.46 Y-43.62 E314.7523
G1 X34.03 Y-43.62 E314.7719
G1 X-43.66 Y34.06 E318.5557
G1 X-43.66 Y34.63 E318.5753
G1 X34.59 Y-43.62 E322.3866
G1 X35.16 Y-43.62 E322.4063
G1 X-43.66 Y35.19 E326.2451
G1 X-43.66 Y35.76 E326.2647
G1 X35.72 Y-43.62 E330.1311
G1 X36.29 Y-43.62 E330.1507
G1 X-43.66 Y36.33 E334.0448
G1 X-43.66 Y36.89 E334.0640
G1 X36.86 Y-43.62 E337.9857
G1 X37.42 Y-43.62 E338.0050
G1 X-43.66 Y37.46 E341.9541
G1 X-43.66 Y38.02 E341.9734
G1 X37.99 Y-43.62 E345.9501
G1 X38.55 Y-43.62 E345.9693
G1 X-43.66 Y38.59 E349.9735
G1 X-43.66 Y39.15 E349.9928
G1 X39.12 Y-43.62 E354.0245
G1 X39.69 Y-43.62 E354.0441
G1 X-43.66 Y39.72 E358.1036
G1 X-43.66 Y40.29 E358.1232
G1 X40.25 Y-43.62 E362.2102
G1 X40.82 Y-43.62 E362.2298
G1 X-43.66 Y40.85 E366.3443
G1 X-43.66 Y41.42 E366.3639
G1 X41.38 Y-43.62 E370.5060
G1 X41.95 Y-43.62 E370.5256
G1 X-43.66 Y41.98 E374.6951
G1 X-43.66 Y42.55 E374.7147
G1 X42.51 Y-43.62 E378.9118
G1 X43.08 Y-43.62 E378.9314
G1 X-43.66 Y43.11 E383.1560
G1 X-43.66 Y43.68 E383.1756
G1 X43.65 Y-43.62 E387.4280
G1 X43.66 Y-43.62 E387.4283
G1 X43.66 Y-43.07 E387.4472
G1 X-43.46 Y44.05 E391.6906
G1 X-42.90 Y44.05 E391.7099
G1 X43.66 Y-42.51 E395.9259
G1 X43.66 Y-41.94 E395.9456
G1 X-42.33 Y44.05 E400.1339
G1 X-41.77 Y44.05 E400.1531
G1 X43.66 Y-41.38 E404.3142
G1 X43.66 Y-40.81 E404.3338
G1 X-41.20 Y44.05 E408.4671
G1 X-40.63 Y44.05 E408.4867
G1 X43.66 Y-40.24 E412.5922
G1 X43.66 Y-39.68 E412.6115
G1 X-40.07 Y44.05 E416.6897
G1 X-39.50 Y44.05 E416.7093
G1 X43.66 Y-39.11 E420.7598
G1 X43.66 Y-38.55 E420.7790
G1 X-38.94 Y44.05 E424.8022
G1 X-38.37 Y44.05 E424.8219
G1 X43.66 Y-37.98 E428.8173
G1 X43.66 Y-37.42 E428.8365
G1 X-37.81 Y44.05 E432.8047
G1 X-37.24 Y44.05 E432.8243
G1 X43.66 Y-36.85 E436.7647
G1 X43.66 Y-36.28 E436.7843
G1 X-36.67 Y44.05 E440.6969
G1 X-36.11 Y44.05 E440.7162
G1 X43.66 Y-35.72 E444.6016
G1 X43.66 Y-35.15 E444.6212
G1 X-35.54 Y44.05 E448.4788
G1 X-34.98 Y44.05 E448.4980
G1 X43.66 Y-34.59 E452.3283
G1 X43.66 Y-34.02 E452.3480
G1 X-34.41 Y44.05 E456.1505
G1 X-33.85 Y44.05 E456.1698
G1 X43.66 Y-33.46 E459.9450
G1 X43.66 Y-32.89 E459.9647
G1 X-33.28 Y44.05 E463.7122
G1 X-32.71 Y44.05 E463.7318
G1 X43.66 Y-32.32 E467.4515
G1 X43.66 Y-31.76 E467.4708
G1 X-32.15 Y44.05 E471.1633
G1 X-31.58 Y44.05 E471.1829
G1 X43.66 Y-31.19 E474.8476
G1 X43.66 Y-30.63 E474.8669
G1 X-31.02 Y44.05 E478.5043
G1 X-30.45 Y44.05 E478.5239
G1 X43.66 Y-30.06 E482.1336
G1 X43.66 Y-29.50 E482.1528
G1 X-29.89 Y44.05 E485.7352
G1 X-29.32 Y44.05 E485.7548
G1 X43.66 Y-28.93 E489.3095
G1 X43.66 Y-28.36 E489.3291
G1 X-28.75 Y44.05 E492.8559
G1 X-28.19 Y44.05 E492.8752
G1 X43.66 Y-27.80 E496.3748
G1 X43.66 Y-27.23 E496.3944
G1 X-27.62 Y44.05 E499.8662
G1 X-27.06 Y44.05 E499.8855
G1 X43.66 Y-26.67 E503.3300
G1 X43.66 Y-26.10 E503.3497
G1 X-26.49 Y44.05 E506.7665
G1 X-25.93 Y44.05 E506.7857
G1 X43.66 Y-25.54 E510.1753
G1 X43.66 Y-24.97 E510.1949
G1 X-25.36 Y44.05 E513.5566
G1 X-24.79 Y44.05 E513.5763
G1 X43.66 Y-24.41 E516.9105
G1 X43.66 Y-23.84 E516.9301
G1 X-24.23 Y44.05 E520.2368
G1 X-23.66 Y44.05 E520.2564
G1 X43.66 Y-23.27 E523.5354
G1 X43.66 Y-22.71 E523.5546
G1 X-23.10 Y44.05 E526.8063
G1 X-22.53 Y44.05 E526.8259
G1 X43.66 Y-22.14 E530.0498
G1 X43.66 Y-21.58 E530.0691
G1 X-21.97 Y44.05 E533.2657
G1 X-21.40 Y44.05 E533.2854
G1 X43.66 Y-21.01 E536.4542
G1 X43.66 Y-20.45 E536.4735
G1 X-20.83 Y44.05 E539.6148
G1 X-20.27 Y44.05 E539.6342
G1 X43.66 Y-19.88 E542.7479
G1 X43.66 Y-19.31 E542.7676
G1 X-19.70 Y44.05 E545.8537
G1 X-19.14 Y44.05 E545.8729
G1 X43.66 Y-18.75 E548.9318
G1 X43.66 Y-18.18 E548.9514
G1 X-18.57 Y44.05 E551.9824
G1 X-18.01 Y44.05 E552.0017
G1 X43.66 Y-17.62 E555.0055
G1 X43.66 Y-17.05 E555.0251
G1 X-17.44 Y44.05 E558.0011
G1 X-16.88 Y44.05 E558.0204
G1 X43.66 Y-16.49 E560.9691
G1 X43.66 Y-15.92 E560.9887
G1 X-16.31 Y44.05 E563.9096
G1 X-15.74 Y44.05 E563.9293
G1 X43.66 Y-15.35 E566.8225
G1 X43.66 Y-14.79 E566.8418
G1 X-15.18 Y44.05 E569.7077
G1 X-14.61 Y44.05 E569.7273
G1 X43.66 Y-14.22 E572.5654
G1 X43.66 Y-13.66 E572.5847
G1 X-14.05 Y44.05 E575.3956
G1 X-13.48 Y44.05 E575.4152
G1 X43.66 Y-13.09 E578.1983
G1 X43.66 Y-12.53 E578.2177
G1 X-12.92 Y44.05 E580.9735
G1 X-12.35 Y44.05 E580.9931
G1 X43.66 Y-11.96 E583.7212
G1 X43.66 Y-11.39 E583.7407
G1 X-11.78 Y44.05 E586.4411
G1 X-11.22 Y44.05 E586.4604
G1 X43.66 Y-10.83 E589.1334
G1 X43.66 Y-10.26 E589.1530
G1 X-10.65 Y44.05 E591.7983
G1 X-10.09 Y44.05 E591.8176
G1 X43.66 Y-9.70 E594.4356
G1 X43.66 Y-9.13 E594.4552
G1 X-9.52 Y44.05 E597.0454
G1 X-8.96 Y44.05 E597.0648
G1 X43.66 Y-8.56 E599.6275
G1 X43.66 Y-8.00 E599.6468
G1 X-8.39 Y44.05 E602.1820
G1 X-7.82 Y44.05 E602.2016
G1 X43.66 Y-7.43 E604.7090
G1 X43.66 Y-6.87 E604.7284
G1 X-7.26 Y44.05 E607.2085
G1 X-6.69 Y44.05 E607.2281
G1 X43.66 Y-6.30 E609.6804
G1 X43.66 Y-5.74 E609.6998
G1 X-6.13 Y44.05 E612.1249
G1 X-5.56 Y44.05 E612.1445
G1 X43.66 Y-5.17 E614.5419
G1 X43.66 Y-4.61 E614.5612
G1 X-5.00 Y44.05 E616.9313
G1 X-4.43 Y44.05 E616.9509
G1 X43.66 Y-4.04 E619.2932
G1 X43.66 Y-3.47 E619.3128
G1 X-3.86 Y44.05 E621.6274
G1 X-3.30 Y44.05 E621.6467
G1 X43.66 Y-2.91 E623.9340
G1 X43.66 Y-2.34 E623.9536
G1 X-2.73 Y44.05 E626.2131
G1 X-2.17 Y44.05 E626.2324
G1 X43.66 Y-1.78 E628.4646
G1 X43.66 Y-1.21 E628.4843
G1 X-1.60 Y44.05 E630.6887
G1 X-1.04 Y44.05 E630.7080
G1 X43.66 Y-.65 E632.8852
G1 X43.66 Y-.08 E632.9048
G1 X-.47 Y44.05 E635.0543
G1 X.10 Y44.05 E635.0739
G1 X43.66 Y.49 E637.1956
G1 X43.66 Y1.05 E637.2149
G1 X.66 Y44.05 E639.3093
G1 X1.23 Y44.05 E639.3289
G1 X43.66 Y1.62 E641.3955
G1 X43.66 Y2.18 E641.4148
G1 X1.79 Y44.05 E643.4542
G1 X2.36 Y44.05 E643.4738
G1 X43.66 Y2.75 E645.4854
G1 X43.66 Y3.31 E645.5047
G1 X2.92 Y44.05 E647.4890
G1 X3.49 Y44.05 E647.5086
G1 X43.66 Y3.88 E649.4652
G1 X43.66 Y4.44 E649.4845
G1 X4.05 Y44.05 E651.4138
G1 X4.62 Y44.05 E651.4334
G1 X43.66 Y5.01 E653.3349
G1 X43.66 Y5.58 E653.3545
G1 X5.19 Y44.05 E655.2283
G1 X5.75 Y44.05 E655.2476
G1 X43.66 Y6.14 E657.0941
G1 X43.66 Y6.71 E657.1137
G1 X6.32 Y44.05 E658.9324
G1 X6.88 Y44.05 E658.9517
G1 X43.66 Y7.27 E660.7431
G1 X43.66 Y7.84 E660.7628
G1 X7.45 Y44.05 E662.5265
G1 X8.02 Y44.05 E662.5461
G1 X43.66 Y8.40 E664.2822
G1 X43.66 Y8.97 E664.3018
G1 X8.58 Y44.05 E666.0105
G1 X9.15 Y44.05 E666.0301
G1 X43.66 Y9.54 E667.7110
G1 X43.66 Y10.10 E667.7302
G1 X9.71 Y44.05 E669.3839
G1 X10.28 Y44.05 E669.4035
G1 X43.66 Y10.67 E671.0293
G1 X43.66 Y11.23 E671.0487
G1 X10.84 Y44.05 E672.6472
G1 X11.41 Y44.05 E672.6668
G1 X43.66 Y11.80 E674.2376
G1 X43.66 Y12.36 E674.2570
G1 X11.97 Y44.05 E675.8004
G1 X12.54 Y44.05 E675.8201
G1 X43.66 Y12.93 E677.3358
G1 X43.66 Y13.50 E677.3554
G1 X13.11 Y44.05 E678.8435
G1 X13.67 Y44.05 E678.8628
G1 X43.66 Y14.06 E680.3235
G1 X43.66 Y14.63 E680.3431
G1 X14.24 Y44.05 E681.7760
G1 X14.80 Y44.05 E681.7953
G1 X43.66 Y15.19 E683.2010
G1 X43.66 Y15.76 E683.2207
G1 X15.37 Y44.05 E684.5986
G1 X15.93 Y44.05 E684.6179
G1 X43.66 Y16.32 E685.9685
G1 X43.66 Y16.89 E685.9881
G1 X16.50 Y44.05 E687.3110
G1 X17.07 Y44.05 E687.3307
G1 X43.66 Y17.46 E688.6258
G1 X43.66 Y18.02 E688.6451
G1 X17.63 Y44.05 E689.9129
